markets/ANKR.svg

<svg width="43" height="43" viewBox="0 0 43 43" fill="none" xmlns="http://www.w3.org/2000/svg">
<circle cx="21.8917" cy="21.6315" r="21" fill="white"/>
<g clip-path="url(#clip0_7926_3078)">
<path fill-rule="evenodd" clip-rule="evenodd" d="M23.8704 7.08153L33.6517 12.1065C35.0704 12.8565 35.9664 14.2815 35.9664 15.9315V18.2565H32.3824V15.9315C32.3824 15.7065 32.2331 15.4815 32.0091 15.3315L22.2277 10.3065C22.0784 10.2315 21.8544 10.2315 21.6304 10.3065L11.8491 15.3315C11.6251 15.4065 11.4757 15.6315 11.4757 15.9315V18.2565H7.89172V15.9315C7.89172 14.3565 8.78772 12.8565 10.2064 12.1065L19.9877 7.08153C21.1824 6.48153 22.6011 6.48153 23.8704 7.08153ZM24.9904 21.4815C24.9904 19.7565 23.5717 18.4065 21.9291 18.4065C20.2117 18.4065 18.8677 19.7565 18.8677 21.4815C18.8677 23.2065 20.2864 24.5565 21.9291 24.5565C23.5717 24.5565 24.9904 23.2065 24.9904 21.4815ZM31.9344 27.9315C32.1584 27.8565 32.3077 27.6315 32.3077 27.3315V25.0065H35.8917V27.3315C35.8917 28.9065 34.9957 30.4065 33.5771 31.1565L23.7957 36.1815C23.1984 36.4815 22.5264 36.6315 21.8544 36.6315C21.1824 36.6315 20.5104 36.4815 19.9131 36.1815L10.2064 31.1565C8.78772 30.4065 7.89172 28.9815 7.89172 27.3315V25.0065H11.4757V27.3315C11.4757 27.5565 11.6251 27.7815 11.8491 27.9315L20.1371 32.1315V27.9315C17.2997 27.1065 15.2837 24.5565 15.2837 21.4815C15.2837 17.8065 18.2704 14.7315 22.0037 14.7315C25.6624 14.7315 28.7237 17.7315 28.7237 21.4815C28.7237 24.5565 26.6331 27.1815 23.8704 27.9315V32.1315L31.9344 27.9315Z" fill="#245AE5" fill-opacity="0.9"/>
</g>
<defs>
<clipPath id="clip0_7926_3078">
<rect width="28" height="30" fill="white" transform="translate(7.89172 6.63153)"/>
</clipPath>
</defs>
</svg>

<svg xmlns="http://www.w3.org/2000/svg" width="43" height="43" fill="none"><circle cx="21.892" cy="21.631" r="21" fill="#fff"/><g clip-path="url(#a)"><path fill="#245AE5" fill-opacity=".9" fill-rule="evenodd" d="m23.87 7.082 9.782 5.025c1.418.75 2.314 2.175 2.314 3.825v2.324h-3.584v-2.325c0-.224-.149-.45-.373-.6l-9.781-5.024c-.15-.075-.374-.075-.598 0l-9.78 5.024c-.225.075-.374.3-.374.6v2.325H7.892v-2.325c0-1.574.896-3.074 2.314-3.824l9.782-5.025c1.194-.6 2.613-.6 3.882 0Zm1.12 14.4a3.082 3.082 0 0 0-3.06-3.075c-1.718 0-3.062 1.35-3.062 3.075a3.082 3.082 0 0 0 3.061 3.075 3.082 3.082 0 0 0 3.061-3.075Zm6.944 6.45c.224-.075.374-.3.374-.6v-2.326h3.584v2.325a4.368 4.368 0 0 1-2.315 3.826l-9.781 5.024c-.598.3-1.27.45-1.942.45a4.34 4.34 0 0 1-1.94-.45l-9.708-5.024c-1.418-.75-2.314-2.175-2.314-3.826v-2.325h3.584v2.325c0 .226.15.45.373.6l8.288 4.2v-4.2c-2.837-.825-4.853-3.375-4.853-6.45 0-3.675 2.986-6.75 6.72-6.75 3.658 0 6.72 3 6.72 6.75 0 3.075-2.09 5.7-4.854 6.45v4.2l8.064-4.2Z" clip-rule="evenodd"/></g><defs><clipPath id="a"><path fill="#fff" d="M7.892 6.632h28v30h-28z"/></clipPath></defs></svg>
